icons/Logos/pixelfed-fill.svg

<svg viewBox="0 0 24 24" xmlns="http://www.w3.org/2000/svg"><path d="M12.001 2C17.5238 2 22.001 6.47715 22.001 12C22.001 17.5228 17.5238 22 12.001 22C6.47813 22 2.00098 17.5228 2.00098 12C2.00098 6.47715 6.47813 2 12.001 2ZM13.0322 8.09865H10.4084C9.42035 8.09865 8.61941 8.87488 8.61941 9.83241V16.5804L11.2143 14.109H13.0322C14.7448 14.109 16.1331 12.7635 16.1331 11.1038C16.1331 9.44411 14.7448 8.09865 13.0322 8.09865Z"/></svg>

<svg xmlns="http://www.w3.org/2000/svg" viewBox="0 0 24 24">
    <g>
        <path fill="none" d="M0 0H24V24H0z"/>
        <path d="M12 2c5.523 0 10 4.477 10 10s-4.477 10-10 10S2 17.523 2 12 6.477 2 12 2zm1.031 6.099h-2.624c-.988 0-1.789.776-1.789 1.733v6.748l2.595-2.471h1.818c1.713 0 3.101-1.345 3.101-3.005s-1.388-3.005-3.1-3.005z"/>
    </g>
</svg>
